images/5459751.svg

<?xml version="1.0" encoding="UTF-8"?>
<svg xmlns="http://www.w3.org/2000/svg" xmlns:xlink="http://www.w3.org/1999/xlink" width="300pt" height="300pt" viewBox="0 0 300 300" version="1.1">
<defs>
<g>
<symbol overflow="visible" id="glyph0-0">
<path style="stroke:none;" d="M 0.796875 2.828125 L 0.796875 -11.28125 L 8.796875 -11.28125 L 8.796875 2.828125 Z M 1.703125 1.9375 L 7.90625 1.9375 L 7.90625 -10.390625 L 1.703125 -10.390625 Z M 1.703125 1.9375 "/>
</symbol>
<symbol overflow="visible" id="glyph0-1">
<path style="stroke:none;" d="M 1.578125 -11.671875 L 3.703125 -11.671875 L 8.875 -1.90625 L 8.875 -11.671875 L 10.40625 -11.671875 L 10.40625 0 L 8.28125 0 L 3.109375 -9.765625 L 3.109375 0 L 1.578125 0 Z M 1.578125 -11.671875 "/>
</symbol>
<symbol overflow="visible" id="glyph0-2">
<path style="stroke:none;" d="M 6.3125 -10.59375 C 5.164062 -10.59375 4.253906 -10.164062 3.578125 -9.3125 C 2.898438 -8.457031 2.5625 -7.296875 2.5625 -5.828125 C 2.5625 -4.359375 2.898438 -3.195312 3.578125 -2.34375 C 4.253906 -1.488281 5.164062 -1.0625 6.3125 -1.0625 C 7.457031 -1.0625 8.363281 -1.488281 9.03125 -2.34375 C 9.695312 -3.195312 10.03125 -4.359375 10.03125 -5.828125 C 10.03125 -7.296875 9.695312 -8.457031 9.03125 -9.3125 C 8.363281 -10.164062 7.457031 -10.59375 6.3125 -10.59375 Z M 6.3125 -11.875 C 7.945312 -11.875 9.253906 -11.328125 10.234375 -10.234375 C 11.210938 -9.140625 11.703125 -7.671875 11.703125 -5.828125 C 11.703125 -3.984375 11.210938 -2.507812 10.234375 -1.40625 C 9.253906 -0.3125 7.945312 0.234375 6.3125 0.234375 C 4.664062 0.234375 3.351562 -0.3125 2.375 -1.40625 C 1.394531 -2.507812 0.90625 -3.984375 0.90625 -5.828125 C 0.90625 -7.671875 1.394531 -9.140625 2.375 -10.234375 C 3.351562 -11.328125 4.664062 -11.875 6.3125 -11.875 Z M 6.3125 -11.875 "/>
</symbol>
<symbol overflow="visible" id="glyph0-3">
<path style="stroke:none;" d="M 1.578125 -11.671875 L 3.15625 -11.671875 L 3.15625 -6.890625 L 8.890625 -6.890625 L 8.890625 -11.671875 L 10.46875 -11.671875 L 10.46875 0 L 8.890625 0 L 8.890625 -5.5625 L 3.15625 -5.5625 L 3.15625 0 L 1.578125 0 Z M 1.578125 -11.671875 "/>
</symbol>
</g>
</defs>
<g id="surface47665">
<rect x="0" y="0" width="300" height="300" style="fill:rgb(100%,100%,100%);fill-opacity:1;stroke:none;"/>
<path style="fill:none;stroke-width:1;stroke-linecap:butt;stroke-linejoin:miter;stroke:rgb(0%,0%,0%);stroke-opacity:1;stroke-miterlimit:10;" d="M 76.664062 112.257812 L 76.664062 112.257812 M 73.671875 112.050781 L 73.785156 113.085938 M 70.679688 111.84375 L 70.902344 113.917969 M 67.6875 111.640625 L 68.019531 114.75 M 64.695312 111.433594 L 65.136719 115.582031 M 61.699219 111.230469 L 62.253906 116.414062 M 58.707031 111.023438 L 59.371094 117.246094 M 55.714844 110.816406 L 56.488281 118.074219 M 52.722656 110.613281 L 53.605469 118.90625 M 49.730469 110.40625 L 50.722656 119.738281 M 46.738281 110.203125 L 47.839844 120.570312 M 43.742188 109.996094 L 44.957031 121.402344 M 40.75 109.789062 L 42.074219 122.234375 M 37.917969 109.597656 L 39.347656 123.019531 "/>
<path style="fill:none;stroke-width:1.2;stroke-linecap:butt;stroke-linejoin:miter;stroke:rgb(0%,0%,0%);stroke-opacity:1;stroke-miterlimit:10;" d="M 76.664062 112.257812 L 95.742188 79.105469 "/>
<path style="fill:none;stroke-width:1.2;stroke-linecap:butt;stroke-linejoin:miter;stroke:rgb(0%,0%,100%);stroke-opacity:1;stroke-miterlimit:10;" d="M 102.300781 140.644531 L 89.484375 126.449219 "/>
<path style="fill:none;stroke-width:1.2;stroke-linecap:butt;stroke-linejoin:miter;stroke:rgb(0%,0%,0%);stroke-opacity:1;stroke-miterlimit:10;" d="M 89.484375 126.449219 L 76.664062 112.257812 "/>
<path style="fill:none;stroke-width:1.2;stroke-linecap:butt;stroke-linejoin:miter;stroke:rgb(0%,0%,0%);stroke-opacity:1;stroke-miterlimit:10;" d="M 95.742188 79.105469 L 133.167969 87.003906 "/>
<path style="fill:none;stroke-width:1.2;stroke-linecap:butt;stroke-linejoin:miter;stroke:rgb(0%,0%,0%);stroke-opacity:1;stroke-miterlimit:10;" d="M 97.628906 88.699219 L 127.566406 95.019531 "/>
<path style="fill:none;stroke-width:1.2;stroke-linecap:butt;stroke-linejoin:miter;stroke:rgb(0%,0%,0%);stroke-opacity:1;stroke-miterlimit:10;" d="M 133.167969 87.003906 L 137.222656 125.039062 "/>
<path style="fill:none;stroke-width:1.2;stroke-linecap:butt;stroke-linejoin:miter;stroke:rgb(0%,0%,0%);stroke-opacity:1;stroke-miterlimit:10;" d="M 137.222656 125.039062 L 119.761719 132.84375 "/>
<path style="fill:none;stroke-width:1.2;stroke-linecap:butt;stroke-linejoin:miter;stroke:rgb(0%,0%,100%);stroke-opacity:1;stroke-miterlimit:10;" d="M 119.761719 132.84375 L 102.300781 140.644531 "/>
<path style=" stroke:none;fill-rule:nonzero;fill:rgb(0%,0%,0%);fill-opacity:1;" d="M 137.222656 125.039062 L 142.675781 163.496094 L 155.507812 159.304688 Z M 137.222656 125.039062 "/>
<path style="fill:none;stroke-width:1.2;stroke-linecap:butt;stroke-linejoin:miter;stroke:rgb(0%,0%,0%);stroke-opacity:1;stroke-miterlimit:10;" d="M 137.222656 125.039062 L 174.625 117.03125 "/>
<path style="fill:none;stroke-width:1.2;stroke-linecap:butt;stroke-linejoin:miter;stroke:rgb(0%,0%,100%);stroke-opacity:1;stroke-miterlimit:10;" d="M 102.300781 140.644531 L 98.351562 159.359375 "/>
<path style="fill:none;stroke-width:1.2;stroke-linecap:butt;stroke-linejoin:miter;stroke:rgb(0%,0%,0%);stroke-opacity:1;stroke-miterlimit:10;" d="M 98.351562 159.359375 L 94.402344 178.070312 "/>
<path style=" stroke:none;fill-rule:nonzero;fill:rgb(100%,100%,100%);fill-opacity:1;" d="M 96.300781 131.144531 L 108.300781 131.144531 L 108.300781 150.144531 L 96.300781 150.144531 Z M 96.300781 131.144531 "/>
<g style="fill:rgb(0%,0%,100%);fill-opacity:1;">
  <use xlink:href="#glyph0-1" x="96.300781" y="145.996094"/>
</g>
<path style="fill:none;stroke-width:1.2;stroke-linecap:butt;stroke-linejoin:miter;stroke:rgb(0%,0%,0%);stroke-opacity:1;stroke-miterlimit:10;" d="M 91.394531 181.417969 L 105.625 194.195312 "/>
<path style="fill:none;stroke-width:1.2;stroke-linecap:butt;stroke-linejoin:miter;stroke:rgb(100%,0%,0%);stroke-opacity:1;stroke-miterlimit:10;" d="M 105.625 194.195312 L 119.855469 206.972656 "/>
<path style="fill:none;stroke-width:1.2;stroke-linecap:butt;stroke-linejoin:miter;stroke:rgb(0%,0%,0%);stroke-opacity:1;stroke-miterlimit:10;" d="M 97.40625 174.722656 L 111.636719 187.5 "/>
<path style="fill:none;stroke-width:1.2;stroke-linecap:butt;stroke-linejoin:miter;stroke:rgb(100%,0%,0%);stroke-opacity:1;stroke-miterlimit:10;" d="M 111.636719 187.5 L 125.867188 200.277344 "/>
<path style="fill:none;stroke-width:1.2;stroke-linecap:butt;stroke-linejoin:miter;stroke:rgb(0%,0%,0%);stroke-opacity:1;stroke-miterlimit:10;" d="M 94.402344 178.070312 L 76.21875 184.007812 "/>
<path style="fill:none;stroke-width:1.2;stroke-linecap:butt;stroke-linejoin:miter;stroke:rgb(100%,0%,0%);stroke-opacity:1;stroke-miterlimit:10;" d="M 76.21875 184.007812 L 58.039062 189.941406 "/>
<path style=" stroke:none;fill-rule:nonzero;fill:rgb(100%,100%,100%);fill-opacity:1;" d="M 116.863281 194.125 L 129.863281 194.125 L 129.863281 213.125 L 116.863281 213.125 Z M 116.863281 194.125 "/>
<g style="fill:rgb(100%,0%,0%);fill-opacity:1;">
  <use xlink:href="#glyph0-2" x="116.863281" y="208.976562"/>
</g>
<path style="fill:none;stroke-width:1.2;stroke-linecap:butt;stroke-linejoin:miter;stroke:rgb(100%,0%,0%);stroke-opacity:1;stroke-miterlimit:10;" d="M 58.039062 189.941406 L 54.089844 208.65625 "/>
<path style="fill:none;stroke-width:1.2;stroke-linecap:butt;stroke-linejoin:miter;stroke:rgb(0%,0%,0%);stroke-opacity:1;stroke-miterlimit:10;" d="M 54.089844 208.65625 L 50.140625 227.367188 "/>
<path style=" stroke:none;fill-rule:nonzero;fill:rgb(100%,100%,100%);fill-opacity:1;" d="M 52.039062 180.441406 L 65.039062 180.441406 L 65.039062 199.441406 L 52.039062 199.441406 Z M 52.039062 180.441406 "/>
<g style="fill:rgb(100%,0%,0%);fill-opacity:1;">
  <use xlink:href="#glyph0-2" x="52.039062" y="195.292969"/>
</g>
<path style="fill:none;stroke-width:1.2;stroke-linecap:butt;stroke-linejoin:miter;stroke:rgb(0%,0%,0%);stroke-opacity:1;stroke-miterlimit:10;" d="M 149.09375 161.398438 L 186.519531 169.300781 "/>
<path style="fill:none;stroke-width:1.2;stroke-linecap:butt;stroke-linejoin:miter;stroke:rgb(0%,0%,0%);stroke-opacity:1;stroke-miterlimit:10;" d="M 186.519531 169.300781 L 212.070312 140.835938 "/>
<path style="fill:none;stroke-width:1.2;stroke-linecap:butt;stroke-linejoin:miter;stroke:rgb(0%,0%,0%);stroke-opacity:1;stroke-miterlimit:10;" d="M 195.769531 172.464844 L 216.214844 149.695312 "/>
<path style="fill:none;stroke-width:1.2;stroke-linecap:butt;stroke-linejoin:miter;stroke:rgb(0%,0%,0%);stroke-opacity:1;stroke-miterlimit:10;" d="M 198.390625 205.660156 L 186.519531 169.300781 "/>
<path style="fill:none;stroke-width:1.2;stroke-linecap:butt;stroke-linejoin:miter;stroke:rgb(0%,0%,0%);stroke-opacity:1;stroke-miterlimit:10;" d="M 212.070312 140.835938 L 249.496094 148.738281 "/>
<path style="fill:none;stroke-width:1.2;stroke-linecap:butt;stroke-linejoin:miter;stroke:rgb(0%,0%,0%);stroke-opacity:1;stroke-miterlimit:10;" d="M 249.496094 148.738281 L 261.367188 185.097656 "/>
<path style="fill:none;stroke-width:1.2;stroke-linecap:butt;stroke-linejoin:miter;stroke:rgb(0%,0%,0%);stroke-opacity:1;stroke-miterlimit:10;" d="M 242.128906 155.167969 L 251.625 184.253906 "/>
<path style="fill:none;stroke-width:1.2;stroke-linecap:butt;stroke-linejoin:miter;stroke:rgb(0%,0%,0%);stroke-opacity:1;stroke-miterlimit:10;" d="M 261.367188 185.097656 L 235.816406 213.558594 "/>
<path style="fill:none;stroke-width:1.2;stroke-linecap:butt;stroke-linejoin:miter;stroke:rgb(0%,0%,0%);stroke-opacity:1;stroke-miterlimit:10;" d="M 235.816406 213.558594 L 198.390625 205.660156 "/>
<path style="fill:none;stroke-width:1.2;stroke-linecap:butt;stroke-linejoin:miter;stroke:rgb(0%,0%,0%);stroke-opacity:1;stroke-miterlimit:10;" d="M 233.929688 203.964844 L 203.992188 197.644531 "/>
<path style="fill:none;stroke-width:1.2;stroke-linecap:butt;stroke-linejoin:miter;stroke:rgb(0%,0%,0%);stroke-opacity:1;stroke-miterlimit:10;" d="M 172.113281 120.765625 L 181.484375 127.070312 "/>
<path style="fill:none;stroke-width:1.2;stroke-linecap:butt;stroke-linejoin:miter;stroke:rgb(100%,0%,0%);stroke-opacity:1;stroke-miterlimit:10;" d="M 181.484375 127.070312 L 190.855469 133.371094 "/>
<path style="fill:none;stroke-width:1.2;stroke-linecap:butt;stroke-linejoin:miter;stroke:rgb(0%,0%,0%);stroke-opacity:1;stroke-miterlimit:10;" d="M 177.136719 113.296875 L 186.507812 119.601562 "/>
<path style="fill:none;stroke-width:1.2;stroke-linecap:butt;stroke-linejoin:miter;stroke:rgb(100%,0%,0%);stroke-opacity:1;stroke-miterlimit:10;" d="M 186.507812 119.601562 L 195.878906 125.902344 "/>
<path style="fill:none;stroke-width:1.2;stroke-linecap:butt;stroke-linejoin:miter;stroke:rgb(0%,0%,0%);stroke-opacity:1;stroke-miterlimit:10;" d="M 174.625 117.03125 L 180.507812 98.835938 "/>
<path style="fill:none;stroke-width:1.2;stroke-linecap:butt;stroke-linejoin:miter;stroke:rgb(0%,0%,100%);stroke-opacity:1;stroke-miterlimit:10;" d="M 180.507812 98.835938 L 186.394531 80.636719 "/>
<path style=" stroke:none;fill-rule:nonzero;fill:rgb(100%,100%,100%);fill-opacity:1;" d="M 187.367188 120.136719 L 200.367188 120.136719 L 200.367188 139.136719 L 187.367188 139.136719 Z M 187.367188 120.136719 "/>
<g style="fill:rgb(100%,0%,0%);fill-opacity:1;">
  <use xlink:href="#glyph0-2" x="187.367188" y="134.988281"/>
</g>
<path style="fill:none;stroke-width:1.2;stroke-linecap:butt;stroke-linejoin:miter;stroke:rgb(0%,0%,100%);stroke-opacity:1;stroke-miterlimit:10;" d="M 186.394531 80.636719 L 205.09375 76.636719 "/>
<path style="fill:none;stroke-width:1.2;stroke-linecap:butt;stroke-linejoin:miter;stroke:rgb(0%,0%,0%);stroke-opacity:1;stroke-miterlimit:10;" d="M 205.09375 76.636719 L 223.796875 72.632812 "/>
<path style=" stroke:none;fill-rule:nonzero;fill:rgb(100%,100%,100%);fill-opacity:1;" d="M 174.394531 71.136719 L 198.394531 71.136719 L 198.394531 90.136719 L 174.394531 90.136719 Z M 174.394531 71.136719 "/>
<g style="fill:rgb(0%,0%,100%);fill-opacity:1;">
  <use xlink:href="#glyph0-1" x="174.394531" y="85.988281"/>
  <use xlink:href="#glyph0-3" x="186.363281" y="85.988281"/>
</g>
</g>
</svg>

<svg xmlns="http://www.w3.org/2000/svg" xmlns:xlink="http://www.w3.org/1999/xlink" width="300pt" height="300pt" viewBox="0 0 300 300"><defs><symbol overflow="visible"><path d="M.797 2.828v-14.11h8V2.83zm.906-.89h6.203v-12.33H1.703zm0 0"/></symbol><symbol overflow="visible" id="a"><path d="M1.578-11.672h2.125l5.172 9.766v-9.766h1.53V0H8.282L3.11-9.766V0H1.577zm0 0"/></symbol><symbol overflow="visible" id="b"><path d="M6.313-10.594c-1.15 0-2.06.43-2.735 1.28-.68.857-1.015 2.017-1.015 3.486 0 1.47.335 2.633 1.015 3.484.676.856 1.586 1.28 2.735 1.28 1.144.002 2.05-.424 2.718-1.28.665-.85 1-2.015 1-3.484 0-1.47-.335-2.63-1-3.484-.667-.852-1.573-1.282-2.717-1.282zm0-1.28c1.632 0 2.94.546 3.92 1.64.978 1.093 1.47 2.562 1.47 4.406 0 1.844-.492 3.32-1.47 4.422-.98 1.093-2.288 1.64-3.92 1.64-1.65 0-2.96-.546-3.938-1.64-.98-1.102-1.47-2.578-1.47-4.422 0-1.844.49-3.313 1.47-4.406.977-1.094 2.29-1.64 3.938-1.64zm0 0"/></symbol><symbol overflow="visible" id="c"><path d="M1.578-11.672h1.578v4.78H8.89v-4.78h1.58V0H8.89v-5.563H3.157V0H1.578zm0 0"/></symbol></defs><g><path fill="#fff" d="M0 0h300v300H0z"/><path d="M76.664 112.258m-2.992-.207l.113 1.036m-3.105-1.242l.222 2.074m-3.215-2.277l.333 3.11m-3.325-3.316l.442 4.148M61.7 111.23l.554 5.184m-3.547-5.39l.664 6.222m-3.655-6.43l.773 7.258m-3.765-7.46l.882 8.292m-3.875-8.5l.993 9.332m-3.985-9.535l1.102 10.367m-4.098-10.574l1.215 11.406M40.75 109.79l1.324 12.444m-4.156-12.636l1.43 13.422" stroke="#000" stroke-miterlimit="10" fill="none"/><path d="M76.664 112.258l19.078-33.153" stroke-width="1.2" stroke="#000" stroke-miterlimit="10" fill="none"/><path d="M102.3 140.645L89.485 126.45" stroke-width="1.2" stroke="#00f" stroke-miterlimit="10" fill="none"/><path d="M89.484 126.45l-12.82-14.192M95.742 79.105l37.426 7.9M97.63 88.7l29.936 6.32M133.168 87.004l4.055 38.035M137.223 125.04l-17.46 7.804" stroke-width="1.2" stroke="#000" stroke-miterlimit="10" fill="none"/><path d="M119.762 132.844l-17.46 7.8" stroke-width="1.2" stroke="#00f" stroke-miterlimit="10" fill="none"/><path d="M137.223 125.04l5.453 38.456 12.832-4.19zm0 0"/><path d="M137.223 125.04l37.402-8.01" stroke-width="1.2" stroke="#000" stroke-miterlimit="10" fill="none"/><path d="M102.3 140.645l-3.948 18.714" stroke-width="1.2" stroke="#00f" stroke-miterlimit="10" fill="none"/><path d="M98.352 159.36l-3.95 18.71" stroke-width="1.2" stroke="#000" stroke-miterlimit="10" fill="none"/><path d="M96.3 131.145h12v19h-12zm0 0" fill="#fff"/><use xlink:href="#a" x="96.301" y="145.996" fill="#00f"/><path d="M91.395 181.418l14.23 12.777" stroke-width="1.2" stroke="#000" stroke-miterlimit="10" fill="none"/><path d="M105.625 194.195l14.23 12.778" stroke-width="1.2" stroke="#f00" stroke-miterlimit="10" fill="none"/><path d="M97.406 174.723l14.23 12.777" stroke-width="1.2" stroke="#000" stroke-miterlimit="10" fill="none"/><path d="M111.637 187.5l14.23 12.777" stroke-width="1.2" stroke="#f00" stroke-miterlimit="10" fill="none"/><path d="M94.402 178.07l-18.183 5.938" stroke-width="1.2" stroke="#000" stroke-miterlimit="10" fill="none"/><path d="M76.22 184.008l-18.18 5.933" stroke-width="1.2" stroke="#f00" stroke-miterlimit="10" fill="none"/><path d="M116.863 194.125h13v19h-13zm0 0" fill="#fff"/><use xlink:href="#b" x="116.863" y="208.977" fill="#f00"/><path d="M58.04 189.94l-3.95 18.716" stroke-width="1.2" stroke="#f00" stroke-miterlimit="10" fill="none"/><path d="M54.09 208.656l-3.95 18.71" stroke-width="1.2" stroke="#000" stroke-miterlimit="10" fill="none"/><path d="M52.04 180.44h13v19h-13zm0 0" fill="#fff"/><use xlink:href="#b" x="52.039" y="195.293" fill="#f00"/><path d="M149.094 161.398l37.426 7.903M186.52 169.3l25.55-28.464M195.77 172.465l20.445-22.77M198.39 205.66l-11.87-36.36M212.07 140.836l37.426 7.902M249.496 148.738l11.87 36.36M242.13 155.168l9.495 29.086M261.367 185.098l-25.55 28.46M235.816 213.56l-37.425-7.9M233.93 203.965l-29.938-6.32M172.113 120.766l9.37 6.304" stroke-width="1.2" stroke="#000" stroke-miterlimit="10" fill="none"/><path d="M181.484 127.07l9.37 6.3" stroke-width="1.2" stroke="#f00" stroke-miterlimit="10" fill="none"/><path d="M177.137 113.297l9.37 6.305" stroke-width="1.2" stroke="#000" stroke-miterlimit="10" fill="none"/><path d="M186.508 119.602l9.37 6.3" stroke-width="1.2" stroke="#f00" stroke-miterlimit="10" fill="none"/><path d="M174.625 117.03l5.883-18.194" stroke-width="1.2" stroke="#000" stroke-miterlimit="10" fill="none"/><path d="M180.508 98.836l5.887-18.2" stroke-width="1.2" stroke="#00f" stroke-miterlimit="10" fill="none"/><path d="M187.367 120.137h13v19h-13zm0 0" fill="#fff"/><use xlink:href="#b" x="187.367" y="134.988" fill="#f00"/><path d="M186.395 80.637l18.7-4" stroke-width="1.2" stroke="#00f" stroke-miterlimit="10" fill="none"/><path d="M205.094 76.637l18.703-4.004" stroke-width="1.2" stroke="#000" stroke-miterlimit="10" fill="none"/><path d="M174.395 71.137h24v19h-24zm0 0" fill="#fff"/><g fill="#00f"><use xlink:href="#a" x="174.395" y="85.988"/><use xlink:href="#c" x="186.363" y="85.988"/></g></g></svg>
